X:122
T:Grommet
R:polka 32 reel
C:Jo Freya (Old Swan Band)
Z:Neil Gledhill (Old Swan Band)
M:2/4
L:1/16
Q:1/4=90
P:A2
K:D
P:A
|:DFAF Adfa|gfef d2A2|B3A GABG|A2AB AGFE|
DFAF Adfa|gfef d3e|f2ed cdec|d2d2 d4:|]
|:fdAf dAfd|edcB A4|ecAe cAec|dcde fde=f|
fdAf dAfd|edcB A4|ABcB ABcB|AGFE D4:|]

